X:064 
T:Game Cock (reel), The
S:Denis / Mollie Murphy
F:file ID: cre.5/064game_c
B:CRE5.158 (Coileach Comhraic)
Q:180
M:C
R:reel
K:D
FAdA BAdA|BdAF E2E2|FAdA BAdA|BdAF E2D2:|
effe defg|afdf e2e2|effe defe|dBAF E2D2|
effe defg|afdf e2e2|(3fga ef defe|dBAF E2D2-|D8||

%%%

